modules/coreui-icons-free/icons/monitor.svg

<!-- Generated by IcoMoon.io -->
<svg version="1.1" xmlns="http://www.w3.org/2000/svg" width="24" height="24" viewBox="0 0 24 24">
<title>monitor</title>
<path d="M22.125 0.75h-20.25c-0.621 0.001-1.124 0.504-1.125 1.125v15.75c0.001 0.621 0.504 1.124 1.125 1.125h9.375v3h-3.75v1.5h9v-1.5h-3.75v-3h9.375c0.621-0.001 1.124-0.504 1.125-1.125v-15.75c-0.001-0.621-0.504-1.124-1.125-1.125h-0zM21.75 2.25v9h-19.5v-9zM2.25 17.25v-4.5h19.5v4.5z"></path>
<path d="M18.75 14.25h1.5v1.5h-1.5v-1.5z"></path>
</svg>

<svg xmlns="http://www.w3.org/2000/svg" width="24" height="24" viewBox="0 0 24 24"><path d="M22.125.75H1.875A1.127 1.127 0 00.75 1.875v15.75a1.127 1.127 0 001.125 1.125h9.375v3H7.5v1.5h9v-1.5h-3.75v-3h9.375a1.127 1.127 0 001.125-1.125V1.875A1.127 1.127 0 0022.125.75zm-.375 1.5v9H2.25v-9zm-19.5 15v-4.5h19.5v4.5z"/><path d="M18.75 14.25h1.5v1.5h-1.5v-1.5z"/></svg>
